actions/24/map-gnomonic.svg

<svg xmlns="http://www.w3.org/2000/svg" viewBox="0 0 24 24" width="24" height="24">
  <defs id="defs3051">
    <style type="text/css" id="current-color-scheme">.ColorScheme-Text {color:#fcfcfc;}</style>
  </defs>
  <g transform="translate(1,1)">
    <path style="fill:currentColor;fill-opacity:1;stroke:none" d="M 6,3 C 3,3 3,6 3,6 v 10 c 0,0 0,3 3,3 3,0 7,0 10,0 3,0 3,-3 3,-3 V 6 C 19,6 19,3 16,3 13,3 9,3 6,3 Z M 6,4 C 8,4 8,4 8,4 V 8.7070312 C 5.5597804,8.2109613 4.003147,7.1574975 4,6 4,6 4,4 6,4 Z m 3,0 h 4 V 8.8730469 C 12.351181,8.9566207 11.677489,8.9993843 11,9 10.322511,8.9993843 9.6488191,8.9566207 9,8.8730469 Z m 5,0 c 0,0 0,0 2,0 2,0 2,2 2,2 -0.0031,1.1574975 -1.55978,2.2109613 -4,2.7070312 z M 4,7.9277344 c 0.8857623,0.8044625 2.2981555,1.4320395 4,1.7773437 v 2.5898439 c -1.7018446,0.345304 -3.1142378,0.972881 -4,1.777344 z m 14,0.00781 v 6.1289061 c -0.888553,-0.801535 -2.300622,-1.42621 -4,-1.769531 V 9.7050781 C 15.699378,9.3617573 17.111447,8.7370824 18,7.9355469 Z M 9,9.8671875 C 9.6527856,9.953482 10.324795,9.9981076 11,10 11.675039,9.9987452 12.347045,9.954776 13,9.8691406 V 12.130859 C 12.347045,12.045224 11.675039,12.001255 11,12 c -0.675205,0.0019 -1.3472143,0.04652 -2,0.132812 z M 11,13 c 0.677489,6.16e-4 1.351181,0.04338 2,0.126953 V 18 H 9 V 13.126953 C 9.6488191,13.043379 10.322511,13.000616 11,13 Z M 8,13.292969 V 18 c 0,0 0,0 -2,0 -2,0 -2,-2 -2,-2 0.00315,-1.157497 1.5597806,-2.210961 4,-2.707031 z m 6,0 c 2.440219,0.49607 3.996853,1.549534 4,2.707031 0,0 0,2 -2,2 -2,0 -2,0 -2,0 z" class="ColorScheme-Text"/>
  </g>
</svg>

<svg xmlns="http://www.w3.org/2000/svg" viewBox="0 0 24 24" width="24" height="24">
  <defs id="defs3051">
    <style type="text/css" id="current-color-scheme">
      .ColorScheme-Text {
        color:#eff0f1;
      }
      </style>
  </defs>
  <g transform="translate(1,1)">
    <path style="fill:currentColor;fill-opacity:1;stroke:none" d="M 3 3 L 3 6 L 3 16 L 3 19 L 19 19 L 19 16 L 19 6 L 19 3 L 3 3 z M 4 4 L 8 4 L 8 8.7070312 A 7 3.0000024 0 0 1 4 6 L 4 4 z M 9 4 L 13 4 L 13 8.8730469 A 7 3.0000024 0 0 1 11 9 A 7 3.0000024 0 0 1 9 8.8730469 L 9 4 z M 14 4 L 18 4 L 18 6 A 7 3.0000024 0 0 1 14 8.7070312 L 14 4 z M 4 7.9277344 A 7.9999909 3.9999955 0 0 0 8 9.7050781 L 8 12.294922 A 7.9999909 3.9999955 0 0 0 4 14.072266 L 4 7.9277344 z M 18 7.9355469 L 18 14.064453 A 7.9999909 3.9999955 0 0 0 14 12.294922 L 14 9.7050781 A 7.9999909 3.9999955 0 0 0 18 7.9355469 z M 9 9.8671875 A 7.9999909 3.9999955 0 0 0 11 10 A 7.9999909 3.9999955 0 0 0 13 9.8691406 L 13 12.130859 A 7.9999909 3.9999955 0 0 0 11 12 A 7.9999909 3.9999955 0 0 0 9 12.132812 L 9 9.8671875 z M 11 13 A 7 3.0000024 0 0 1 13 13.126953 L 13 18 L 9 18 L 9 13.126953 A 7 3.0000024 0 0 1 11 13 z M 8 13.292969 L 8 18 L 4 18 L 4 16 A 7 3.0000024 0 0 1 8 13.292969 z M 14 13.292969 A 7 3.0000024 0 0 1 18 16 L 18 18 L 14 18 L 14 13.292969 z " class="ColorScheme-Text"/>
  </g>
</svg>
